X:640
T:The Boss Jig
M:6/8
L:1/8
Z:abc by Bruce Osborne - bosborne@kos.net
K:Bb
a|b2 B BAB|GBB FBB|b2 B BAB|GcB AGF|!
b2 B BAB|GBB FBB|GBB Acc|dBB B2:|!
|:B|dff fdB|dff fdB|dff fdB|ecc c2 c|!
dff fdB|dff fdB|bag fed|ceA B2:|!
